dist/flags/s/031.svg

<svg width="16" height="12" viewBox="0 0 16 12" fill="none" xmlns="http://www.w3.org/2000/svg">
<mask id="mask0" mask-type="alpha" maskUnits="userSpaceOnUse" x="0" y="0" width="16" height="12">
<rect width="16" height="12" fill="white"/>
</mask>
<g mask="url(#mask0)">
<path fill-rule="evenodd" clip-rule="evenodd" d="M0 0V12H16V0H0Z" fill="#AF0100"/>
<mask id="mask1" mask-type="alpha" maskUnits="userSpaceOnUse" x="0" y="0" width="16" height="12">
<path fill-rule="evenodd" clip-rule="evenodd" d="M0 0V12H16V0H0Z" fill="white"/>
</mask>
<g mask="url(#mask1)">
<path fill-rule="evenodd" clip-rule="evenodd" d="M0 0V4H16V0H0Z" fill="#3CA5D9"/>
<path fill-rule="evenodd" clip-rule="evenodd" d="M0 8V12H16V8H0Z" fill="#73BE4A"/>
<path fill-rule="evenodd" clip-rule="evenodd" d="M8.58088 7.45333C7.90739 7.29804 7.38035 6.76856 7.38734 5.9916C7.39389 5.2643 7.86303 4.64905 8.60377 4.48185C9.34451 4.31465 9.99611 4.66724 9.99611 4.66724C9.79195 4.21328 9.08124 3.89496 8.49829 3.89649C7.41316 3.89934 6.25548 4.72775 6.2441 5.9928C6.2323 7.30432 7.48052 8.04993 8.57905 8.04705C9.4597 8.04474 9.87805 7.47795 9.96484 7.23694C9.96484 7.23694 9.25437 7.60862 8.58088 7.45333ZM9.00889 6.71035L9.59667 6.30133L10.1845 6.71035L9.97709 6.02494L10.5477 5.59231L9.83179 5.57772L9.59667 4.90133L9.36156 5.57772L8.64562 5.59231L9.21625 6.02494L9.00889 6.71035Z" fill="#F7FCFF"/>
</g>
</g>
</svg>

<svg width="16" height="12" fill="none" xmlns="http://www.w3.org/2000/svg">
  <mask id="a" maskUnits="userSpaceOnUse" x="0" y="0" width="16" height="12">
    <path fill="#fff" d="M0 0h16v12H0z"/>
  </mask>
  <g mask="url(#a)">
    <path fill-rule="evenodd" clip-rule="evenodd" d="M0 0v12h16V0H0z" fill="#AF0100"/>
    <mask id="b" maskUnits="userSpaceOnUse" x="0" y="0" width="16" height="12">
      <path fill-rule="evenodd" clip-rule="evenodd" d="M0 0v12h16V0H0z" fill="#fff"/>
    </mask>
    <g mask="url(#b)" fill-rule="evenodd" clip-rule="evenodd">
      <path d="M0 0v4h16V0H0z" fill="#3CA5D9"/>
      <path d="M0 8v4h16V8H0z" fill="#73BE4A"/>
      <path d="M8.58 7.453c-.673-.155-1.2-.684-1.193-1.461a1.53 1.53 0 011.217-1.51c.74-.167 1.392.185 1.392.185-.204-.454-.915-.772-1.498-.77-1.085.002-2.243.83-2.254 2.096C6.232 7.304 7.481 8.05 8.58 8.047c.88-.002 1.299-.57 1.386-.81 0 0-.71.372-1.384.216zm.429-.743l.588-.409.588.41-.208-.686.57-.433-.715-.014-.235-.677-.235.677-.716.014.57.433-.207.685z" fill="#F7FCFF"/>
    </g>
  </g>
</svg>
